austria/municipalities/41810.svg

<?xml version="1.0" encoding="UTF-8"?>
<!DOCTYPE svg PUBLIC "-//W3C//DTD SVG 1.1//EN" "http://www.w3.org/Graphics/SVG/1.1/DTD/svg11.dtd">
<svg xmlns="http://www.w3.org/2000/svg" version="1.1" width="166px" height="207px" style="shape-rendering:geometricPrecision; text-rendering:geometricPrecision; image-rendering:optimizeQuality; fill-rule:evenodd; clip-rule:evenodd" xmlns:xlink="http://www.w3.org/1999/xlink">
<g><path style="opacity:1" fill="#000000" d="M -0.5,-0.5 C 54.8333,-0.5 110.167,-0.5 165.5,-0.5C 165.5,43.8333 165.5,88.1667 165.5,132.5C 157.932,172.068 134.599,196.735 95.5,206.5C 86.8333,206.5 78.1667,206.5 69.5,206.5C 30.0061,196.67 6.67281,171.67 -0.5,131.5C -0.5,87.5 -0.5,43.5 -0.5,-0.5 Z"/></g>
<g><path style="opacity:1" fill="#fea700" d="M 3.5,3.5 C 15.1667,3.5 26.8333,3.5 38.5,3.5C 47.176,22.5661 50.176,42.5661 47.5,63.5C 32.6561,59.8321 18.1561,55.1655 4,49.5C 3.50008,34.1703 3.33341,18.837 3.5,3.5 Z"/></g>
<g><path style="opacity:1" fill="#e10a15" d="M 40.5,3.5 C 49.5,3.5 58.5,3.5 67.5,3.5C 67.5,51.8333 67.5,100.167 67.5,148.5C 59.3192,149.451 51.6526,147.951 44.5,144C 50.6141,126.047 53.2808,107.547 52.5,88.5C 35.3405,89.8322 19.1738,94.4988 4,102.5C 3.16705,85.4902 3.33372,68.4902 4.5,51.5C 19.4563,57.4057 34.7896,62.0724 50.5,65.5C 50.6664,56.4938 50.4998,47.4938 50,38.5C 47.9076,26.457 44.7409,14.7903 40.5,3.5 Z"/></g>
<g><path style="opacity:1" fill="#fea700" d="M 69.5,3.5 C 78.1667,3.5 86.8333,3.5 95.5,3.5C 95.6667,51.8345 95.5,100.168 95,148.5C 91.3622,146.986 87.5289,146.32 83.5,146.5C 78.8205,146.751 74.1538,147.084 69.5,147.5C 69.5,99.5 69.5,51.5 69.5,3.5 Z"/></g>
<g><path style="opacity:1" fill="#e10a15" d="M 97.5,3.5 C 106.839,3.33355 116.173,3.50021 125.5,4C 116.631,23.5178 112.964,44.0178 114.5,65.5C 130.309,62.3813 145.642,57.7146 160.5,51.5C 161.666,68.4902 161.833,85.4902 161,102.5C 145.799,94.4914 129.632,89.8247 112.5,88.5C 112.087,107.612 114.754,126.279 120.5,144.5C 120.392,145.442 120.059,146.275 119.5,147C 112.427,150.412 105.26,150.912 98,148.5C 97.5,100.168 97.3333,51.8345 97.5,3.5 Z"/></g>
<g><path style="opacity:1" fill="#fea700" d="M 127.5,3.5 C 138.833,3.5 150.167,3.5 161.5,3.5C 161.667,18.837 161.5,34.1703 161,49.5C 146.844,55.1655 132.344,59.8321 117.5,63.5C 114.777,42.5029 118.111,22.5029 127.5,3.5 Z"/></g>
<g><path style="opacity:1" fill="#fea700" d="M 44.5,90.5 C 46.5,90.5 48.5,90.5 50.5,90.5C 51.1982,108.582 48.8649,126.248 43.5,143.5C 38.2328,144.599 33.2328,146.433 28.5,149C 21.8429,150.941 15.1762,150.941 8.5,149C 6.10357,144.489 4.60357,139.655 4,134.5C 3.1677,124.151 3.33437,113.817 4.5,103.5C 17.4686,97.9271 30.8019,93.5938 44.5,90.5 Z"/></g>
<g><path style="opacity:1" fill="#fea700" d="M 114.5,90.5 C 131.044,91.8492 146.544,96.5158 161,104.5C 161.667,115.167 161.667,125.833 161,136.5C 160.293,140.335 159.126,144.002 157.5,147.5C 153.746,148.807 149.913,149.807 146,150.5C 138.253,148.438 130.42,146.772 122.5,145.5C 116.473,127.671 113.807,109.337 114.5,90.5 Z"/></g>
<g><path style="opacity:1" fill="#fefffe" d="M -0.5,131.5 C 6.67281,171.67 30.0061,196.67 69.5,206.5C 46.1667,206.5 22.8333,206.5 -0.5,206.5C -0.5,181.5 -0.5,156.5 -0.5,131.5 Z"/></g>
<g><path style="opacity:1" fill="#fefffe" d="M 165.5,132.5 C 165.5,157.167 165.5,181.833 165.5,206.5C 142.167,206.5 118.833,206.5 95.5,206.5C 134.599,196.735 157.932,172.068 165.5,132.5 Z"/></g>
<g><path style="opacity:1" fill="#00612a" d="M 37.5,146.5 C 45.627,147.904 53.7936,149.238 62,150.5C 69.0899,150.152 76.0899,149.152 83,147.5C 90.6667,149.167 98.3333,150.833 106,152.5C 112.725,150.985 119.392,149.319 126,147.5C 132.395,149.557 138.895,151.224 145.5,152.5C 149.381,151.64 153.215,150.64 157,149.5C 154.629,155.418 152.129,161.418 149.5,167.5C 147.192,167.914 144.858,168.247 142.5,168.5C 136.504,167.17 130.504,165.836 124.5,164.5C 112.446,168.374 100.446,168.374 88.5,164.5C 80.7208,166.403 72.8875,168.07 65,169.5C 57.1944,167.972 49.3611,166.639 41.5,165.5C 35.2911,166.179 29.1244,167.179 23,168.5C 20.4719,168.275 17.9719,167.942 15.5,167.5C 13.2413,162.207 10.908,156.874 8.5,151.5C 8.83333,151.167 9.16667,150.833 9.5,150.5C 19.5649,153.891 28.8983,152.557 37.5,146.5 Z"/></g>
<g><path style="opacity:1" fill="#fefffe" d="M 87.5,166.5 C 99.628,170.473 111.795,170.473 124,166.5C 131.389,168.556 138.889,170.056 146.5,171C 144.805,173.535 142.471,175.035 139.5,175.5C 133.772,174.777 128.105,173.777 122.5,172.5C 117.138,173.525 111.804,174.525 106.5,175.5C 100.303,174.743 94.1359,173.743 88,172.5C 80.1699,174.866 72.1699,176.199 64,176.5C 56.0702,175.945 48.2369,174.945 40.5,173.5C 35.4029,173.464 30.4029,174.131 25.5,175.5C 22.7188,175.393 20.7188,174.059 19.5,171.5C 26.7803,169.777 34.1136,168.444 41.5,167.5C 49.4289,168.443 57.2622,169.776 65,171.5C 72.6149,169.895 80.1149,168.229 87.5,166.5 Z"/></g>
<g><path style="opacity:1" fill="#00612a" d="M 85.5,174.5 C 92.5507,175.222 99.5507,176.222 106.5,177.5C 111.671,176.673 116.838,175.673 122,174.5C 128.107,175.761 134.274,176.594 140.5,177C 116.377,201.863 87.7106,208.863 54.5,198C 43.2976,193.565 33.631,186.898 25.5,178C 30.3694,176.366 35.3694,175.532 40.5,175.5C 48.2667,176.877 56.1,177.877 64,178.5C 71.5451,178.384 78.7117,177.051 85.5,174.5 Z"/></g>
</svg>

<svg xmlns="http://www.w3.org/2000/svg" width="166" height="207" style="shape-rendering:geometricPrecision;text-rendering:geometricPrecision;image-rendering:optimizeQuality;fill-rule:evenodd;clip-rule:evenodd"><path style="opacity:1" d="M-.5-.5h166v133c-7.568 39.568-30.901 64.235-70 74h-26c-39.494-9.83-62.827-34.83-70-75V-.5z"/><path style="opacity:1" fill="#fea700" d="M3.5 3.5h35c8.676 19.066 11.676 39.066 9 60A329.94 329.94 0 0 1 4 49.5c-.5-15.33-.667-30.663-.5-46z"/><path style="opacity:1" fill="#e10a15" d="M40.5 3.5h27v145c-8.18.951-15.847-.549-23-4.5 6.114-17.953 8.78-36.453 8-55.5-17.16 1.332-33.326 5.999-48.5 14-.833-17.01-.666-34.01.5-51a298.006 298.006 0 0 0 46 14c.166-9.006 0-18.006-.5-27-2.092-12.043-5.26-23.71-9.5-35z"/><path style="opacity:1" fill="#fea700" d="M69.5 3.5h26c.167 48.334 0 96.668-.5 145-3.638-1.514-7.471-2.18-11.5-2-4.68.251-9.346.584-14 1V3.5z"/><path style="opacity:1" fill="#e10a15" d="M97.5 3.5c9.339-.166 18.673 0 28 .5-8.869 19.518-12.536 40.018-11 61.5a238.566 238.566 0 0 0 46-14 434.113 434.113 0 0 1 .5 51c-15.201-8.009-31.368-12.675-48.5-14-.413 19.112 2.254 37.779 8 56a4.933 4.933 0 0 1-1 2.5c-7.073 3.412-14.24 3.912-21.5 1.5-.5-48.332-.667-96.666-.5-145z"/><path style="opacity:1" fill="#fea700" d="M127.5 3.5h34c.167 15.337 0 30.67-.5 46a329.93 329.93 0 0 1-43.5 14c-2.723-20.997.611-40.997 10-60zM44.5 90.5h6c.698 18.082-1.635 35.748-7 53a54.755 54.755 0 0 0-15 5.5c-6.657 1.941-13.324 1.941-20 0-2.396-4.511-3.896-9.345-4.5-14.5a160.728 160.728 0 0 1 .5-31 228.755 228.755 0 0 1 40-13zM114.5 90.5c16.544 1.35 32.044 6.016 46.5 14a256.122 256.122 0 0 1 0 32 45.603 45.603 0 0 1-3.5 11 74.353 74.353 0 0 1-11.5 3 238.083 238.083 0 0 0-23.5-5c-6.027-17.829-8.693-36.163-8-55z"/><path style="opacity:1" fill="#fefffe" d="M-.5 131.5c7.173 40.17 30.506 65.17 70 75h-70v-75zM165.5 132.5v74h-70c39.099-9.765 62.432-34.432 70-74z"/><path style="opacity:1" fill="#00612a" d="M37.5 146.5a1343.159 1343.159 0 0 0 24.5 4 114.2 114.2 0 0 0 21-3l23 5a438.25 438.25 0 0 0 20-5 167.192 167.192 0 0 0 19.5 5 159.57 159.57 0 0 0 11.5-3 723.933 723.933 0 0 1-7.5 18c-2.308.414-4.642.747-7 1-5.996-1.33-11.996-2.664-18-4-12.054 3.874-24.054 3.874-36 0a396.677 396.677 0 0 1-23.5 5 482.299 482.299 0 0 0-23.5-4 181.015 181.015 0 0 0-18.5 3 85.8 85.8 0 0 1-7.5-1 974.59 974.59 0 0 0-7-16l1-1c10.065 3.391 19.398 2.057 28-4z"/><path style="opacity:1" fill="#fefffe" d="M87.5 166.5c12.128 3.973 24.295 3.973 36.5 0a154.982 154.982 0 0 0 22.5 4.5c-1.695 2.535-4.029 4.035-7 4.5a175.314 175.314 0 0 1-17-3 2297.05 2297.05 0 0 1-16 3 239.275 239.275 0 0 1-18.5-3 94.685 94.685 0 0 1-24 4 206.375 206.375 0 0 1-23.5-3 54.085 54.085 0 0 0-15 2c-2.781-.107-4.781-1.441-6-4a212.35 212.35 0 0 1 22-4 236.332 236.332 0 0 1 23.5 4 1036.184 1036.184 0 0 0 22.5-5z"/><path style="opacity:1" fill="#00612a" d="M85.5 174.5c7.05.722 14.05 1.722 21 3a243.419 243.419 0 0 0 15.5-3 134.733 134.733 0 0 0 18.5 2.5c-24.123 24.863-52.79 31.863-86 21-11.202-4.435-20.869-11.102-29-20a47.794 47.794 0 0 1 15-2.5 244.757 244.757 0 0 0 23.5 3c7.545-.116 14.712-1.449 21.5-4z"/></svg>
